X:53
T:Melody and bottom
M:4/4
L:1/4
Q:1/4=100
K:AMaj
%%MIDI program 1 41 % Viola
%%MIDI program 2 41 % Viola
%%MIDI program 3 41 % Viola
V:Tenor
A2GA|B2A2|GABc|(d<B)cA|(B>c)AG|A4||(c>d)ee|(e<c)(cA)|
dd(d<c)|B2cc|e2e2|Bc(B<A)|(G<E)AG|ABcd|e2cA|(B>c)AG|A4||
V:Five
V:Four
C4|E4|z4|E4|G4|z4|C4|E4|z4|E4|B4|z4|E4|F4|z4|C4|E4||

